images/icons/v2/trash-solid-24.svg

<svg height="24" viewBox="0 0 24 24" width="24" xmlns="http://www.w3.org/2000/svg"><path d="m16.38 4.5a4.49 4.49 0 0 0 -8.76 0h-5.62v1.5h1.5l1.36 14a2.25 2.25 0 0 0 2.24 2h9.8a2.25 2.25 0 0 0 2.24-2l1.36-14h1.5v-1.5zm-4.38-2a3 3 0 0 1 2.82 2h-5.64a3 3 0 0 1 2.82-2zm-4 15.5-.5-10h1.5l.5 10zm4.75 0h-1.5v-10h1.5zm3.25 0h-1.5l.5-10h1.5z"/></svg>

<svg xmlns="http://www.w3.org/2000/svg" width="24" height="24" viewBox="0 0 24 24"><title>trash-solid-24</title><path d="M16.38,4.5a4.49,4.49,0,0,0-8.76,0H2V6H3.5L4.86,20A2.25,2.25,0,0,0,7.1,22h9.8a2.25,2.25,0,0,0,2.24-2L20.5,6H22V4.5ZM12,2.5a3,3,0,0,1,2.82,2H9.18A3,3,0,0,1,12,2.5ZM8,18,7.5,8H9l.5,10Zm4.75,0h-1.5V8h1.5ZM16,18H14.5L15,8h1.5Z"/></svg>
